X: 36
T:Difyrwch Gwyr Dyfi
T:The Delight of the Men of Dovey
M:6/8
L:1/8
Q:130
C:Trad
S:51 Welsh Airs
R:Jig
A:Wales
H:From a facsimile c.1840: A Choice Collection of Fifty-One Welsh Airs
H:adapted for The Harp, Piano-Forte, Harpsichord,
H:Violin, or Flute by Edward Jones
H:"Harper to His Late Majesty King George IV, when
H:Prince of Wales".
Z:brian_martin12345@yahoo.com
K:Dm
"Tenderly"
FAA (A>c)A|BGG G2G|A2A BAG|FDD D3:||d2d fed|(c>d)c/B/ A2A|!
(d>e)d/e/ fed|cAA A2B|(c>d)c cBA|BGG G2A/B/|cAF (B>A)G|FDDD3:||
